X:118
T:Fred Finn's
Z: id:dc-reel-109
M:C
L:1/8
K:D Major
B|A3F ABde|fdec d2cd|BEE2 G3B|AFF2 dFAF|!
A3F ABde|fdec d2cd|BAGB ABde|faeg fdd:|!
e|fdad bdaf|dfaf gfed|fbba b3a|fbba feeg|!
fdad bdaf|dfaf gfed|BAGB ABde|faeg fdd:|!

